img/subtract.svg

<svg fill="none" height="18" viewBox="0 0 25 18" width="25" xmlns="http://www.w3.org/2000/svg"><path clip-rule="evenodd" d="m22.1039 1.15929c1.0338.27651 1.8403 1.08609 2.1199 2.11994.7312 2.94948.6836 8.52587.0154 11.52137-.2766 1.0339-1.0861 1.8404-2.12 2.12-2.9187.722-15.99169.6329-18.74147 0-1.03385-.2765-1.84035-1.0861-2.11994-2.12-.689743-2.8112-.642121-8.75623-.01536-11.50601.27652-1.03385 1.08609-1.84035 2.11994-2.11994 3.90192-.814177 17.35273-.551489 18.74153-.01536zm-11.6752 4.28628 6.2677 3.59468-6.2677 3.59465z" fill="#000" fill-rule="evenodd"/></svg>

<svg width="25" height="18" viewBox="0 0 25 18" fill="none" xmlns="http://www.w3.org/2000/svg">
<path fill-rule="evenodd" clip-rule="evenodd" d="M22.1039 1.15929C23.1377 1.4358 23.9442 2.24538 24.2238 3.27923C24.955 6.22871 24.9074 11.8051 24.2392 14.8006C23.9626 15.8345 23.1531 16.641 22.1192 16.9206C19.2005 17.6426 6.12751 17.5535 3.37773 16.9206C2.34388 16.6441 1.53738 15.8345 1.25779 14.8006C0.568047 11.9894 0.615669 6.04437 1.24243 3.29459C1.51895 2.26074 2.32852 1.45424 3.36237 1.17465C7.26429 0.360473 20.7151 0.623161 22.1039 1.15929ZM10.4287 5.44557L16.6964 9.04025L10.4287 12.6349V5.44557Z" fill="black"/>
</svg>
